www/assets/icons/subdirectory_arrow_right.svg

<svg xmlns="http://www.w3.org/2000/svg" width="24" height="24" viewBox="0 0 24 24" fill='currentColor'><path d="m19.5 14.5-6 6-1.42-1.42 3.59-3.58H4.5v-12h2v10h9.17l-3.59-3.58L13.5 8.5z"/></svg>

<svg width="24" height="24" viewBox="0 0 24 24" xmlns="http://www.w3.org/2000/svg" fill='currentColor'><path d="M19.5 14.5L13.5 20.5L12.08 19.08L15.67 15.5H4.5V3.5H6.5V13.5H15.67L12.08 9.92L13.5 8.5L19.5 14.5Z"/></svg>
